public/icons/02d.svg

<svg width="240" height="240" viewBox="0 0 240 240" fill="none" xmlns="http://www.w3.org/2000/svg">
<path fill-rule="evenodd" clip-rule="evenodd" d="M120 207C168.049 207 207 168.049 207 120C207 71.9512 168.049 33 120 33C71.9512 33 33 71.9512 33 120C33 168.049 71.9512 207 120 207ZM210 120C210 169.706 169.706 210 120 210C70.2944 210 30 169.706 30 120C30 70.2944 70.2944 30 120 30C169.706 30 210 70.2944 210 120Z" fill="#FFF308" fill-opacity="0.2"/>
<path fill-rule="evenodd" clip-rule="evenodd" d="M119.5 195C161.198 195 195 161.198 195 119.5C195 77.8025 161.198 44 119.5 44C77.8025 44 44 77.8025 44 119.5C44 161.198 77.8025 195 119.5 195ZM199 119.5C199 163.407 163.407 199 119.5 199C75.5934 199 40 163.407 40 119.5C40 75.5934 75.5934 40 119.5 40C163.407 40 199 75.5934 199 119.5Z" fill="#FFF308" fill-opacity="0.6"/>
<path fill-rule="evenodd" clip-rule="evenodd" d="M119.5 187C156.779 187 187 156.779 187 119.5C187 82.2208 156.779 52 119.5 52C82.2208 52 52 82.2208 52 119.5C52 156.779 82.2208 187 119.5 187Z" fill="#FFEC65"/>
<path d="M209.144 91.3529C209.159 90.9038 209.167 90.4528 209.167 90C209.167 67.9086 191.221 50 169.083 50C151.522 50 136.599 61.2695 131.179 76.9567C127.287 74.9298 122.861 73.7838 118.167 73.7838C102.611 73.7838 90 86.3682 90 101.892C90 117.416 102.611 130 118.167 130L169.137 130H199.417C210.785 130 220 120.804 220 109.459C220 101.626 215.606 94.8175 209.144 91.3529Z" fill="white"/>
<path d="M93.3195 162.599C93.3287 162.321 93.3334 162.042 93.3334 161.762C93.3334 148.086 82.2897 137 68.6667 137C57.86 137 48.6764 143.976 45.3412 153.687C42.9459 152.433 40.2222 151.723 37.3333 151.723C27.7604 151.723 20 159.514 20 169.124C20 178.733 27.7604 186.524 37.3333 186.524L68.6999 186.524H87.3333C94.3289 186.524 100 180.831 100 173.808C100 168.959 97.2962 164.744 93.3195 162.599Z" fill="white"/>
</svg>

<svg xmlns="http://www.w3.org/2000/svg" width="240" height="240" fill="none" xmlns:v="https://vecta.io/nano"><g fill-rule="evenodd"><g fill="#fff308"><path d="M120 207c48.049 0 87-38.951 87-87s-38.951-87-87-87-87 38.951-87 87 38.951 87 87 87zm90-87c0 49.706-40.294 90-90 90s-90-40.294-90-90 40.294-90 90-90 90 40.294 90 90z" fill-opacity=".2"/><path d="M119.5 195c41.698 0 75.5-33.802 75.5-75.5S161.198 44 119.5 44 44 77.803 44 119.5 77.803 195 119.5 195zm79.5-75.5c0 43.907-35.593 79.5-79.5 79.5S40 163.407 40 119.5 75.593 40 119.5 40 199 75.593 199 119.5z" fill-opacity=".6"/></g><path d="M119.5 187c37.279 0 67.5-30.221 67.5-67.5S156.779 52 119.5 52 52 82.221 52 119.5 82.221 187 119.5 187z" fill="#ffec65"/></g><path d="M209.144 91.353l.023-1.353c0-22.091-17.946-40-40.084-40-17.561 0-32.484 11.27-37.904 26.957a28.09 28.09 0 0 0-13.012-3.173C102.611 73.784 90 86.368 90 101.892S102.611 130 118.167 130h50.97 30.28c11.368 0 20.583-9.196 20.583-20.541 0-7.833-4.394-14.642-10.856-18.106zM93.32 162.599l.014-.837C93.333 148.086 82.29 137 68.667 137c-10.807 0-19.99 6.976-23.326 16.687-2.395-1.254-5.119-1.964-8.008-1.964-9.573 0-17.333 7.791-17.333 17.401s7.76 17.4 17.333 17.4H68.7h18.633c6.996 0 12.667-5.693 12.667-12.716a12.72 12.72 0 0 0-6.68-11.209z" fill="#fff"/></svg>
